file/geico.svg

<svg clip-rule="evenodd" fill-rule="evenodd" stroke-linejoin="round" stroke-miterlimit="1.41421" viewBox="0 0 560 400" xmlns="http://www.w3.org/2000/svg"><path d="m-28 712.7c0-19.2 10.8-23.7 28.9-23.7h30.3c22.8 0 26 8.2 26 21v2.1h-19.8c0-6.5-3.7-7.3-10.1-7.3h-21.9c-10.2 0-12.8 2.4-12.8 13.7v8.2c0 11.2 2.6 13.7 12.8 13.7h21.5c5.3 0 10.5-.8 10.5-7.2v-1.9h-25v-13.6h45.1v18.7c0 18.8-9.8 19.8-32.4 19.8h-24.2c-18.1 0-28.9-4.5-28.9-23.7zm90.5-23h71.8v15.2h-51.7v10.5h48.9v13.6h-48.9v10.5h52.8v15.8h-72.9zm79 0h20.1v65.6h-20.1zm26.2 23c0-19.2 10.8-23.7 28.9-23.7h23.7c28.6 0 32.4 6.2 32.2 24.7h-20.1v-1.8c0-4.7-3.4-6.1-9.4-6.1h-22c-10.6 0-12.6 5-12.6 13.1v7.1c0 9.5 2 13.1 11.5 13.1h21.5c9.1 0 11.8-.9 11.8-9.1h20.1v6.2c0 11.1-4 19.8-24.2 19.8h-32.4c-18.1 0-28.9-4.5-28.9-23.7v-19.6zm109.8 13.3c0 9.5 2 13.1 11.5 13.1h25.7c9.5 0 11.5-3.6 11.5-13.1v-7.1c0-8.2-2-13.1-12.6-13.1h-23.6c-10.6 0-12.6 5-12.6 13.1v7.1zm-20.7-13.3c0-19.2 10.8-23.7 28.9-23.7h32.3c18.1 0 28.9 4.5 28.9 23.7v19.6c0 19.2-10.8 23.7-28.9 23.7h-32.3c-18.1 0-28.9-4.5-28.9-23.7zm97.7 35.1c1 0 2.6.2 2.6-1.3 0-1.1-1-1.3-1.9-1.3h-2.1v2.6zm3.4 4.1h-1.1l-2.1-3.3h-1.6v3.3h-.9v-7.3h3.2c.6 0 1.2 0 1.8.4.5.3.8 1 .8 1.6 0 1.4-1 2-2.3 2zm2.5-3.7c0-3.1-2.6-5.7-5.7-5.7-3.2 0-5.7 2.5-5.7 5.7s2.5 5.7 5.7 5.7c3.1.1 5.7-2.5 5.7-5.7m-12.2 0c0-3.6 2.9-6.5 6.5-6.5s6.5 2.9 6.5 6.5-2.9 6.5-6.5 6.5-6.5-2.9-6.5-6.5" fill="#104293" fill-rule="nonzero" transform="matrix(1.28469 0 0 1.28469 65.9712 -728.314)"/></svg>

<?xml version="1.0" encoding="UTF-8" standalone="no"?>
<!DOCTYPE svg PUBLIC "-//W3C//DTD SVG 1.1//EN" "http://www.w3.org/Graphics/SVG/1.1/DTD/svg11.dtd">
<svg width="100%" height="100%" viewBox="0 0 560 400" version="1.1" xmlns="http://www.w3.org/2000/svg" xmlns:xlink="http://www.w3.org/1999/xlink" xml:space="preserve" xmlns:serif="http://www.serif.com/" style="fill-rule:evenodd;clip-rule:evenodd;stroke-linejoin:round;stroke-miterlimit:1.41421;">
    <g id="blue" transform="matrix(1.28469,0,0,1.28469,65.9712,-728.314)">
        <path d="M-28,712.7C-28,693.5 -17.2,689 0.9,689L31.2,689C54,689 57.2,697.2 57.2,710L57.2,712.1L37.4,712.1C37.4,705.6 33.7,704.8 27.3,704.8L5.4,704.8C-4.8,704.8 -7.4,707.2 -7.4,718.5L-7.4,726.7C-7.4,737.9 -4.8,740.4 5.4,740.4L26.9,740.4C32.2,740.4 37.4,739.6 37.4,733.2L37.4,731.3L12.4,731.3L12.4,717.7L57.5,717.7L57.5,736.4C57.5,755.2 47.7,756.2 25.1,756.2L0.9,756.2C-17.2,756.2 -28,751.7 -28,732.5L-28,712.7ZM62.5,689.7L134.3,689.7L134.3,704.9L82.6,704.9L82.6,715.4L131.5,715.4L131.5,729L82.6,729L82.6,739.5L135.4,739.5L135.4,755.3L62.5,755.3L62.5,689.7ZM141.5,689.7L161.6,689.7L161.6,755.3L141.5,755.3L141.5,689.7ZM167.7,712.7C167.7,693.5 178.5,689 196.6,689L220.3,689C248.9,689 252.7,695.2 252.5,713.7L232.4,713.7L232.4,711.9C232.4,707.2 229,705.8 223,705.8L201,705.8C190.4,705.8 188.4,710.8 188.4,718.9L188.4,726C188.4,735.5 190.4,739.1 199.9,739.1L221.4,739.1C230.5,739.1 233.2,738.2 233.2,730L253.3,730L253.3,736.2C253.3,747.3 249.3,756 229.1,756L196.7,756C178.6,756 167.8,751.5 167.8,732.3L167.8,712.7L167.7,712.7ZM277.5,726C277.5,735.5 279.5,739.1 289,739.1L314.7,739.1C324.2,739.1 326.2,735.5 326.2,726L326.2,718.9C326.2,710.7 324.2,705.8 313.6,705.8L290,705.8C279.4,705.8 277.4,710.8 277.4,718.9L277.4,726L277.5,726ZM256.8,712.7C256.8,693.5 267.6,689 285.7,689L318,689C336.1,689 346.9,693.5 346.9,712.7L346.9,732.3C346.9,751.5 336.1,756 318,756L285.7,756C267.6,756 256.8,751.5 256.8,732.3L256.8,712.7ZM354.5,747.8C355.5,747.8 357.1,748 357.1,746.5C357.1,745.4 356.1,745.2 355.2,745.2L353.1,745.2L353.1,747.8L354.5,747.8ZM357.9,751.9L356.8,751.9L354.7,748.6L353.1,748.6L353.1,751.9L352.2,751.9L352.2,744.6L355.4,744.6C356,744.6 356.6,744.6 357.2,745C357.7,745.3 358,746 358,746.6C358,748 357,748.6 355.7,748.6L357.9,751.9ZM360.4,748.2C360.4,745.1 357.8,742.5 354.7,742.5C351.5,742.5 349,745 349,748.2C349,751.4 351.5,753.9 354.7,753.9C357.8,754 360.4,751.4 360.4,748.2M348.2,748.2C348.2,744.6 351.1,741.7 354.7,741.7C358.3,741.7 361.2,744.6 361.2,748.2C361.2,751.8 358.3,754.7 354.7,754.7C351.1,754.7 348.2,751.8 348.2,748.2" style="fill:rgb(16,66,147);fill-rule:nonzero;"/>
    </g>
</svg>
